X: 37
T: Brown Bear's Song
N: Derived from pawnee37.krn
O: Oklahoma, U.S.A.
N: from Pawnee Music by Frances Densmore, 1926
Z: transcribed to **kern format by David Huron, August 2000
C: Skidi and Chaui Bands, 1919
L: 1/8
M: 2/4
Q: 1/4=88
K: D clef=treble
%%linebreak <none>
B [I:setbarnb 1]| 
B3F[M:3/4] | 
G< F-F2E2 | 
B/ F/ F B B- B F[M:2/4] | 
G< F- F3/ D/ | 
D< C-C2 | 
B,2B,2 | 
F> F D/ C3/ | 
D> C C/ C3/ | 
B,< B,- B, B, | 
B,2B3/ B/[M:3/4] | 
d> d B< A B A | 
F4F3/ D/[M:2/4] | 
B< B B3/ F/ | 
E< D D/ D3/[M:3/4] | 
C4C/ B,3/[M:2/4] | 
F> F D/ C3/ | 
D> C C/ C3/ | 
B,< B, B, |]  



